X: 7062
T: Chorus, The
R: reel
M: 4/4
K: Dmajor
fage d2 d2|ABAF D2 D2|g(fed) =c2 c2|EDEF G2 G2:|
EDEF G2 G2|(FG)Ac [G2B2] [G2B2]|AFAB d2 d2|FGAB GGG<G|
AFAF (G2 G2)|Gefg (af)de|(fd)fg a2 a2|defg afdf|
(e=c)ef g2 g2|defg afde|(fd)fg a2 ag|
fage d2 d2|ABAF D2 D2|g(fed) =c2 c2|EDEF G2 G2|
fage d2 d2|ABAF D2 D2|g(fed) =c2 c2|EDEF G2 G2:|

